coreui/free/cil-balance-scale.svg

<svg xmlns="http://www.w3.org/2000/svg" viewBox="0 0 512 512">
  <path fill="var(--ci-primary-color, currentColor)" d="M203.247,386.414,208,381.185V355.4L130.125,191H93.875L16,355.4v27.042l4.234,4.595a124.347,124.347,0,0,0,91.224,39.982h.42A124.343,124.343,0,0,0,203.247,386.414ZM176,368.608a90.924,90.924,0,0,1-64.231,26.413h-.33A90.907,90.907,0,0,1,48,369.667V362.6l64-135.112L176,362.6Z" class="ci-primary"/>
  <path fill="var(--ci-primary-color, currentColor)" d="M418.125,191h-36.25L304,355.4v27.042l4.234,4.595a124.347,124.347,0,0,0,91.224,39.982h.42a124.343,124.343,0,0,0,91.369-40.607L496,381.185V355.4ZM464,368.608a90.924,90.924,0,0,1-64.231,26.413h-.33A90.907,90.907,0,0,1,336,369.667V362.6l64-135.112L464,362.6Z" class="ci-primary"/>
  <path fill="var(--ci-primary-color, currentColor)" d="M272,196.659A56.223,56.223,0,0,0,309.659,159H416V127H309.659a55.991,55.991,0,0,0-107.318,0H96v32H202.341A56.223,56.223,0,0,0,240,196.659V463H136v32H376V463H272ZM232,143a24,24,0,1,1,24,24A24,24,0,0,1,232,143Z" class="ci-primary"/>
</svg>

<svg viewBox="0 0 512 512" xmlns="http://www.w3.org/2000/svg"><g><path d="M203.24 386.414l4.75-5.23v-25.79l-77.875-164.4H93.86l-77.88 164.4v27.04l4.23 4.59 -.001 0c23.5 25.45 56.57 39.94 91.22 39.98h.42v0c34.79-.16 67.93-14.89 91.36-40.61Zm-27.25-17.81v0c-17.08 16.95-40.17 26.45-64.231 26.41h-.33l-.001 0c-23.64.11-46.4-8.98-63.44-25.36v-7.07l64-135.12 64 135.11Z"/><path d="M418.125 191h-36.25L304 355.4v27.04l4.23 4.59v0c23.5 25.45 56.57 39.94 91.22 39.98h.42v0c34.79-.16 67.93-14.89 91.36-40.61l4.75-5.23v-25.79ZM464 368.6v0c-17.08 16.95-40.17 26.45-64.24 26.41h-.33v0c-23.64.11-46.4-8.98-63.44-25.36v-7.07l64-135.12 64 135.11Z"/><path d="M272 196.65v0c18.07-5.44 32.22-19.58 37.65-37.66h106.34v-32H309.64v0c-8.84-29.64-40.02-46.5-69.65-37.67 -18.11 5.39-32.28 19.56-37.67 37.66H95.97v32h106.34v-.001c5.43 18.07 19.57 32.22 37.65 37.65V462.97h-104v32h240v-32h-104Zm-40-53.66v0c0-13.26 10.74-24 24-24 13.25 0 24 10.74 24 24 0 13.25-10.75 24-24 24v0c-13.26 0-24-10.75-24-24Z"/></g></svg>
